X:193
T: ABSCHIED MUSS ICH NEHMEN HIER
N: E0776
O: Europa, Mitteleuropa, Deutschland, Niederrhein; Westfalen;
R: Abschieds - Lied, Wander - Lied, Liebe
M: 4/4
L: 1/8
K: Eb
 | E2EGB2B2 | G3FE2z2 |
c3de2c2 | c3BB2z2 |
B2cde2e2 | G2GcB4 |
G2G2BAGF | F4E2z2 |
B2cde2e2 | G2GcB4 |
G2G2BAGF | F4E2z2

